X: 41451
T: Two Mile Gate
R: jig
M: 6/8
K: Dmajor
|:DFA d2A|d2A BAF|DFA dfe|dAF ~E3|
DFA d2A|BGB ~g3|faf efe|1 dAF ~E3:|2 dAF EFA||
|:B2 B Bcd|cBA ~B3|AFD D2B|AFD DFA|
B2 B Bcd|cBA g2g|faf efe|1 dAF EFA:|2 dAF ~E3||

